64x64/apps/smartsim.svg

<svg height="64" width="64" xmlns="http://www.w3.org/2000/svg"><g transform="translate(1)"><g fill="#8e8e8e"><path d="m58 40v2h-52v-2zm0 6v2h-52v-2zm0 6v2h-52v-2zm0-30v2h-52v-2zm0 6v2h-52v-2zm0 6v2h-52v-2zm0-18v2h-52v-2zm0-6v2h-52v-2z"/><path d="m24 58h-2v-52h2zm-6 0h-2v-52h2zm-6 0h-2v-52h2zm30 0h-2v-52h2zm-6 0h-2v-52h2zm-6 0h-2v-52h2zm18 0h-2v-52h2zm6 0h-2v-52h2z"/></g><rect height="48" opacity=".2" rx="2.5" transform="matrix(0 -1 -1 0 0 0)" width="48" x="-57" y="-56"/><rect fill="#b7b7b7" height="48" rx="2.5" transform="matrix(0 -1 -1 0 0 0)" width="48" x="-56" y="-56"/><path d="m10.5 8a2.495 2.495 0 0 0 -2.5 2.5v1c0-1.385 1.115-2.5 2.5-2.5h43c1.385 0 2.5 1.115 2.5 2.5v-1c0-1.385-1.115-2.5-2.5-2.5z" fill="#f4f4f7" opacity=".2"/></g><path d="m23 39v3s0 4 4 4h12c4 0 4-4 4-4v-8s0-4-4-4h-9c-2 0-2-2-2-2v-1s0-2 2-2h6c2 0 2 2 2 2h5v-3s0-4-4-4h-12c-4 0-4 4-4 4v9s0 3 4 3h9c2 0 2 2 2 2v1s0 2-2 2h-6c-2 0-2-2-2-2z" opacity=".1"/><path d="m23 38v3s0 4 4 4h12c4 0 4-4 4-4v-8s0-4-4-4h-9c-2 0-2-2-2-2v-1s0-2 2-2h6c2 0 2 2 2 2h5v-3s0-4-4-4h-12c-4 0-4 4-4 4v9s0 3 4 3h9c2 0 2 2 2 2v1s0 2-2 2h-6c-2 0-2-2-2-2z" fill="#008282"/></svg>

<svg width="64" height="64" xmlns="http://www.w3.org/2000/svg"><g transform="translate(1)"><g style="fill:#8e8e8e"><path d="M58 40v2H6v-2zM58 46v2H6v-2zM58 52v2H6v-2zM58 22v2H6v-2zM58 28v2H6v-2zM58 34v2H6v-2zM58 16v2H6v-2zM58 10v2H6v-2z"/><path d="M24 58h-2V6h2zM18 58h-2V6h2zM12 58h-2V6h2zM42 58h-2V6h2zM36 58h-2V6h2zM30 58h-2V6h2zM48 58h-2V6h2zM54 58h-2V6h2z"/></g><rect transform="matrix(0 -1 -1 0 0 0)" x="-57" y="-56" width="48" height="48" rx="2.5" ry="2.5" style="opacity:.2"/><rect transform="matrix(0 -1 -1 0 0 0)" x="-56" y="-56" width="48" height="48" rx="2.5" ry="2.5" style="fill:#b7b7b7"/><path d="M10.5 8A2.495 2.495 0 0 0 8 10.5v1C8 10.115 9.115 9 10.5 9h43c1.385 0 2.5 1.115 2.5 2.5v-1C56 9.115 54.885 8 53.5 8z" style="fill:#f4f4f7;opacity:.2"/></g><path d="M23 39v3s0 4 4 4h12c4 0 4-4 4-4v-8s0-4-4-4h-9c-2 0-2-2-2-2v-1s0-2 2-2h6c2 0 2 2 2 2h5v-3s0-4-4-4H27c-4 0-4 4-4 4v9s0 3 4 3h9c2 0 2 2 2 2v1s0 2-2 2h-6c-2 0-2-2-2-2z" style="opacity:.1"/><path d="M23 38v3s0 4 4 4h12c4 0 4-4 4-4v-8s0-4-4-4h-9c-2 0-2-2-2-2v-1s0-2 2-2h6c2 0 2 2 2 2h5v-3s0-4-4-4H27c-4 0-4 4-4 4v9s0 3 4 3h9c2 0 2 2 2 2v1s0 2-2 2h-6c-2 0-2-2-2-2z" style="fill:#008282"/></svg>
